app/images/Thrivetalk.svg

<svg width="102" height="19" viewBox="0 0 102 19" fill="none" xmlns="http://www.w3.org/2000/svg">
<path d="M0.269531 4.27734V1.19531H14.4961V4.27734H9.02344V18H5.73047V4.27734H0.269531ZM15.578 18V0.480469H18.6834V7.10156C19.3631 6.07813 20.3944 5.56641 21.7772 5.56641C23.0506 5.56641 24.0233 5.97266 24.6952 6.78516C25.3748 7.58984 25.7147 8.69531 25.7147 10.1016V18H22.5623V10.7812C22.5623 10.0703 22.4139 9.52734 22.117 9.15234C21.828 8.77734 21.4022 8.58984 20.8397 8.58984C20.2069 8.58984 19.6873 8.84375 19.2811 9.35156C18.8827 9.85937 18.6834 10.5977 18.6834 11.5664V18H15.578ZM28.027 18V5.83594H30.7223L31.0036 7.78125C31.2302 7.17969 31.6364 6.68359 32.2223 6.29297C32.8161 5.90234 33.5934 5.70703 34.5544 5.70703V8.83594C33.5622 8.83594 32.7575 9.07422 32.1403 9.55078C31.5309 10.0352 31.2028 10.7891 31.1559 11.8125V18H28.027ZM35.6948 2.26172C35.6948 1.74609 35.8784 1.30859 36.2456 0.949219C36.6128 0.589844 37.0581 0.410156 37.5816 0.410156C38.0972 0.410156 38.5425 0.589844 38.9175 0.949219C39.2925 1.30859 39.48 1.74609 39.48 2.26172C39.48 2.78516 39.2925 3.22266 38.9175 3.57422C38.5503 3.92578 38.105 4.10156 37.5816 4.10156C37.0503 4.10156 36.6011 3.92578 36.2339 3.57422C35.8745 3.22266 35.6948 2.78516 35.6948 2.26172ZM36.023 18V5.83594H39.1519V18H36.023ZM40.1869 5.83594H43.5502L45.9291 13.3008L46.1634 14.3555L46.4095 13.3008L48.7884 5.83594H52.1634L47.7572 18H44.5814L40.1869 5.83594ZM52.0734 11.9297C52.0734 10.0781 52.632 8.55469 53.7492 7.35938C54.8664 6.16406 56.3234 5.56641 58.1203 5.56641C58.9328 5.56641 59.6789 5.69531 60.3586 5.95312C61.0383 6.21094 61.632 6.59766 62.1398 7.11328C62.6477 7.62109 63.0422 8.28516 63.3234 9.10547C63.6125 9.91797 63.757 10.8516 63.757 11.9062V12.8672H55.2844C55.3312 13.6797 55.6203 14.3398 56.1516 14.8477C56.6828 15.3477 57.3703 15.5977 58.2141 15.5977C58.8156 15.5977 59.3312 15.4766 59.7609 15.2344C60.1906 14.9844 60.4914 14.6328 60.6633 14.1797H63.6867C63.3117 15.4844 62.6516 16.4922 61.7062 17.2031C60.7687 17.9141 59.5734 18.2695 58.1203 18.2695C56.3156 18.2695 54.8547 17.6914 53.7375 16.5352C52.6281 15.3789 52.0734 13.8438 52.0734 11.9297ZM55.3078 10.6992H60.6164C60.6008 9.93359 60.3586 9.32031 59.8898 8.85938C59.4289 8.39062 58.8156 8.15625 58.05 8.15625C57.2844 8.15625 56.6516 8.39062 56.1516 8.85938C55.6594 9.32812 55.3781 9.94141 55.3078 10.6992ZM64.2061 8.66016V5.83594H66.1983L66.2217 2.88281H69.3623L69.3389 5.83594H72.128V8.66016H69.3155L69.2686 13.582C69.2686 14.2148 69.3858 14.668 69.6202 14.9414C69.8545 15.207 70.2647 15.3398 70.8506 15.3398C71.2803 15.3398 71.7061 15.2812 72.128 15.1641V17.9062C71.6592 18.0781 71.003 18.1641 70.1592 18.1641C68.792 18.1641 67.7803 17.8633 67.1241 17.2617C66.4678 16.6602 66.1436 15.6836 66.1514 14.332L66.1983 8.66016H64.2061ZM73.0575 14.7656C73.0575 14.1875 73.1473 13.6836 73.327 13.2539C73.5145 12.8164 73.7841 12.457 74.1356 12.1758C74.4872 11.8945 74.8778 11.6719 75.3075 11.5078C75.745 11.3359 76.2489 11.2031 76.8192 11.1094L79.9716 10.5352V10.0781C79.9716 9.48437 79.8231 9.02734 79.5262 8.70703C79.2372 8.38672 78.8153 8.22656 78.2606 8.22656C77.7372 8.22656 77.3036 8.375 76.9598 8.67188C76.6161 8.96875 76.4442 9.35938 76.4442 9.84375H73.4208C73.4911 8.57812 73.9598 7.55078 74.827 6.76172C75.702 5.96484 76.8466 5.56641 78.2606 5.56641C79.745 5.56641 80.9208 5.94531 81.788 6.70312C82.6552 7.45312 83.0887 8.55469 83.0887 10.0078V18H80.4286L80.2294 16.5117C79.4637 17.6836 78.3036 18.2695 76.7489 18.2695C75.6552 18.2695 74.7645 17.9531 74.077 17.3203C73.3973 16.6875 73.0575 15.8359 73.0575 14.7656ZM76.1747 14.4961C76.1747 14.8633 76.2997 15.1562 76.5497 15.375C76.7997 15.5859 77.1473 15.6914 77.5927 15.6914C77.9833 15.6914 78.3505 15.5977 78.6942 15.4102C79.0458 15.2148 79.327 14.9414 79.538 14.5898C79.827 14.1523 79.9716 13.6172 79.9716 12.9844V12.6211L77.5458 13.125C77.1005 13.2266 76.7606 13.3828 76.5262 13.5938C76.2919 13.8047 76.1747 14.1055 76.1747 14.4961ZM85.3073 18V0.480469H88.4362V18H85.3073ZM90.9595 18V0.480469H94.0884V10.7578L97.6392 5.83594H101.354L97.7798 10.9453L101.975 18H98.4244L95.6002 13.3477L94.0884 15.2695V18H90.9595Z" fill="#62D0DF"/>
</svg>

<svg width="102" height="19" fill="none" xmlns="http://www.w3.org/2000/svg"><path d="M.27 4.277V1.195h14.226v3.082H9.023V18H5.73V4.277H.27zM15.578 18V.48h3.105v6.622c.68-1.024 1.711-1.536 3.094-1.536 1.274 0 2.246.407 2.918 1.22.68.804 1.02 1.91 1.02 3.316V18h-3.153v-7.219c0-.71-.148-1.254-.445-1.629-.289-.375-.715-.562-1.277-.562-.633 0-1.153.254-1.559.762-.398.507-.598 1.246-.598 2.214V18h-3.105zm12.449 0V5.836h2.695l.282 1.945c.226-.601.632-1.097 1.218-1.488.594-.39 1.371-.586 2.332-.586v3.129c-.992 0-1.797.238-2.414.715-.61.484-.937 1.238-.984 2.261V18h-3.129zm7.668-15.738c0-.516.183-.953.55-1.313A1.84 1.84 0 0137.583.41c.515 0 .96.18 1.335.54.375.359.563.796.563 1.312 0 .523-.188.96-.563 1.312a1.86 1.86 0 01-1.335.528c-.532 0-.98-.176-1.348-.528a1.759 1.759 0 01-.54-1.312zM36.023 18V5.836h3.129V18h-3.129zm4.164-12.164h3.363l2.38 7.465.233 1.054.247-1.054 2.378-7.465h3.375L47.757 18h-3.176L40.187 5.836zm11.886 6.094c0-1.852.559-3.375 1.676-4.57 1.117-1.196 2.574-1.794 4.371-1.794.813 0 1.559.13 2.239.387a4.92 4.92 0 011.78 1.16c.509.508.903 1.172 1.184 1.992.29.813.434 1.747.434 2.801v.961h-8.473c.047.813.336 1.473.868 1.98.53.5 1.218.75 2.062.75.602 0 1.117-.12 1.547-.363.43-.25.73-.601.902-1.054h3.024c-.375 1.304-1.035 2.312-1.98 3.023-.938.711-2.134 1.067-3.587 1.067-1.804 0-3.265-.579-4.383-1.735-1.109-1.156-1.664-2.691-1.664-4.605zm3.235-1.23h5.308c-.015-.766-.257-1.38-.726-1.84-.461-.47-1.074-.704-1.84-.704s-1.398.235-1.898.703c-.493.47-.774 1.082-.844 1.84zm8.898-2.04V5.836h1.992l.024-2.953h3.14l-.023 2.953h2.789V8.66h-2.813l-.046 4.922c0 .633.117 1.086.351 1.36.234.265.645.398 1.23.398.43 0 .856-.059 1.278-.176v2.742c-.469.172-1.125.258-1.969.258-1.367 0-2.379-.3-3.035-.902-.656-.602-.98-1.578-.973-2.93l.047-5.672h-1.992zm8.852 6.106c0-.579.09-1.082.269-1.512.188-.438.457-.797.809-1.078a4.343 4.343 0 011.172-.668 7.443 7.443 0 011.511-.399l3.153-.574v-.457c0-.594-.149-1.05-.446-1.371-.289-.32-.71-.48-1.265-.48-.524 0-.957.148-1.301.445-.344.297-.516.687-.516 1.172h-3.023c.07-1.266.539-2.293 1.406-3.082.875-.797 2.02-1.196 3.434-1.196 1.484 0 2.66.38 3.527 1.137.867.75 1.3 1.852 1.3 3.305V18h-2.66l-.199-1.488c-.765 1.172-1.925 1.758-3.48 1.758-1.094 0-1.984-.317-2.672-.95-.68-.633-1.02-1.484-1.02-2.554zm3.117-.27c0 .367.125.66.375.879.25.21.597.316 1.043.316a2.238 2.238 0 001.945-1.102c.289-.437.434-.972.434-1.605v-.363l-2.426.504c-.446.102-.785.258-1.02.469-.234.21-.351.511-.351.902zM85.307 18V.48h3.13V18h-3.13zm5.653 0V.48h3.128v10.278l3.551-4.922h3.715l-3.574 5.11L101.975 18h-3.55L95.6 13.348l-1.512 1.921V18H90.96z" fill="#62D0DF"/></svg>
